X:1
T:Title
%%score { ( 1 3 4 ) | 2 }
L:1/8
M:4/4
K:Bb
V:1 treble nm="Grand Piano"
V:3 treble 
V:4 treble 
V:2 bass 
V:1
 z4 z2[Q:1/4=100] [DF]2 | [DF]2 [B,D]>[CE] [DF]2 [Fd]>[Fd] | [Gc]>[Gc] (3[G-c][GB]G G2 G>G | %3
 F2 F2 [EA]>[EA] [DB]>[Fd] | [Fc]6 [Fd]>[Fc] | z4 z2 d2 | e>d [CGc]>[DG=B] [EGc]2 [DF_B]>[CGc] | %7
 d>c B>A d2 c2 |[M:3/4] [B,DB]6 |[M:1/4][K:bass] (3B,-[F,B,]B, | %10
[M:4/4] z2[K:treble] F>F F2[K:bass] (3E,F,E, | z2[K:treble] B>B B2 [FB]>[Fc] | %12
 [Fd]2 [=Ec]2 [Fc]>[Bc] [Ac]>[Gc] | c6[K:bass] z2 | z2[K:treble] F>F F2[K:bass] (3F,E,D, | %15
 z2[K:treble] G>G G2 [FB]>[Gc] | d>d c>c d2 c2 |[M:3/4] [DB]6 |] %18
V:2
 z4 z2 [B,,B,]2 | [B,,B,]2 [B,,F,]>[B,,F,] [B,,B,]2 [B,,B,]>[B,,B,] | %2
 [E,B,]>[E,B,] (3:2:2[E,B,]2 [E,B,E] [E,B,E]2 [E,B,E]>[E,B,E] | %3
 [D,B,]2 [D,B,]2 [C,F,]>[C,F,] [B,,F,]>[B,,B,] | [F,A,]6 [B,,B,]>[C,A,] | %5
 [D,B,]2 [F,A,E]2[K:treble] [B,D]2 [B,F]2 | [G,B,E]>[F,=B,F] E,>C, C,2 D,>E, | %7
 [F,B,F]>[F,A,F] [F,DF]>[F,CF] [F,B,F]2 [F,A,E]2 |[M:3/4] B,,6 |[M:1/4] D,/ z/ z | %10
[M:4/4] z2 [CE]>[CE] [F,CE]2 z2 | z2[K:treble] [B,F]>[B,F] [B,F]2[K:bass] [D,B,]>[C,A,] | %12
 [B,,B,]2 [G,B,]2 [F,A,]>[=E,G,] [_E,^F,]>[=E,G,] | [F,A,F]2 [C,B,]>[C,B,] .[F,A,]2 z2 | %14
 z2 [CE]>[CE] [F,CE]2 z2 | z2 [B,E]>[B,E] [B,E]2 [D,B,]>[E,B,] | %16
 [F,B,F]>[F,B,F] [G,B,=E]>[G,B,E] [F,B,F]2 [F,A,_E]2 |[M:3/4] [B,,B,]6 |] %18
V:3
 x8 | x8 | x8 | x8 | x8 | [FB]2 F2 B2 z _A, | x8 | x8 |[M:3/4] x6 |[M:1/4][K:bass] x2 | %10
[M:4/4] A,4[K:treble] z4[K:bass] | D,6[K:treble] z2 | x8 | z4 F2[K:bass] z2 | %14
 A,4[K:treble] z4[K:bass] | E,6[K:treble] z2 | x8 |[M:3/4] x6 |] %18
V:4
 x8 | x8 | x8 | x8 | x8 | x8 | x8 | x8 |[M:3/4] x6 |[M:1/4][K:bass] x2 | %10
[M:4/4] x2[K:treble] x4[K:bass] x2 | x2[K:treble] x6 | x8 | z2 =E>E z[K:bass] E, (3D,F,B, | %14
 x2[K:treble] x4[K:bass] x2 | x2[K:treble] x6 | x8 |[M:3/4] x6 |] %18

